assets/ai/ai-researchgate-square.svg

<svg xmlns="http://www.w3.org/2000/svg" width="100%" height="100%" viewBox="-75.52 -43.52 599.04 599.04"><path d="M 48 32 C 21.5 32 0 53.5 0 80 L 0 432 C 0 458.5 21.5 480 48 480 L 400 480 C 426.5 480 448 458.5 448 432 L 448 80 C 448 53.5 426.5 32 400 32 L 48 32 z M 325.20117 96 C 330.82804 96 335.93243 96.651372 340.45898 97.980469 C 344.93467 99.29777 348.94834 101.11477 352.49023 103.44141 C 355.98128 105.74336 359.00097 108.45416 361.49414 111.52344 C 364.05137 114.60451 366.10872 117.8918 367.7207 121.42188 C 368.34658 122.54654 368.1698 123.44247 367.17188 124.06836 L 353.27148 129.7832 C 352.09419 130.41051 351.26481 130.09098 350.61133 128.84961 C 347.4923 123.0695 344.83123 119.2734 340.45898 116.51172 C 336.03447 113.76185 331.94086 112.45703 325.20117 112.45703 C 317.87355 112.45703 314.59971 113.9142 310.00977 117.20117 C 305.45673 120.42368 302.11969 124.47694 300.15039 130.65234 C 299.75509 131.76552 299.39606 133.14769 298.97461 134.77148 C 298.62908 136.4214 298.34785 138.44168 298.16992 140.80664 C 297.99038 143.17268 297.82317 146.1016 297.66992 149.55469 C 297.56787 153.0078 297.51758 157.20137 297.51758 162.06055 C 297.51758 166.94478 297.56786 171.13868 297.66992 174.5918 C 297.82327 178.03162 297.99053 180.96013 298.16992 183.32617 C 298.34783 185.71726 298.62908 187.72549 298.97461 189.38867 C 299.39641 190.98738 299.75509 192.3661 300.15039 193.49219 C 302.11969 199.64289 304.93311 203.00606 309.07617 205.70508 C 313.16841 208.4417 317.87355 210.41211 325.20117 210.41211 C 331.71062 210.41211 337.66996 208.55732 341.55664 205.73047 C 345.40647 202.90468 348.60259 199.17139 350.03516 194.06836 C 350.6625 191.91967 351.46763 189.24603 352.01758 185.97266 C 352.51636 182.69897 352.51758 179.23534 352.51758 174.45312 C 352.51758 173.69762 352.09388 173.3125 351.39062 173.3125 L 329.12695 173.3125 C 327.87376 173.3125 327.25977 172.7001 327.25977 171.44727 L 327.25977 158.68555 C 327.25977 157.41946 327.87376 156.80469 329.12695 156.80469 L 369.98438 156.80469 C 371.26371 156.80469 371.86523 157.41911 371.86523 158.68555 L 371.86523 169.5918 C 371.86523 175.37192 371.86484 180.73178 371.26367 185.69336 C 370.68758 190.65496 369.90853 194.94977 368.92383 198.08203 C 365.80339 207.89137 360.85476 214.8745 353.27148 220.07812 C 345.66207 225.32118 335.85368 228.14648 325.20117 228.14648 C 314.25539 228.14648 305.03638 225.62955 297.51758 220.62891 C 289.9855 215.56528 284.59997 208.13333 281.31445 198.19727 C 280.68713 196.3182 280.20261 194.3877 279.83203 192.36719 C 279.4482 190.35994 279.10141 188.019 278.79492 185.32031 C 278.47552 182.5966 278.27128 179.40138 278.14453 175.62891 C 278.01631 171.88256 277.96484 167.30393 277.96484 162.06055 C 277.96484 156.7914 278.01659 152.27876 278.14453 148.51953 C 278.27168 144.74705 278.47552 141.5101 278.79492 138.8125 C 279.10141 136.12674 279.4482 133.77484 279.83203 131.76758 C 280.20261 129.74708 280.68909 127.82829 281.31641 125.94922 C 284.60193 116.01316 289.9855 108.54511 297.51758 103.53125 C 305.03642 98.518462 314.25539 96 325.20117 96 z M 173.52734 173.8125 C 217.09601 173.8125 250.33008 193.67089 250.33008 236.45898 C 250.33008 265.48697 227.41412 294.54191 196.46875 301.7793 C 215.20225 335.0277 237.7209 364.44058 254.54883 382.75195 C 264.4473 393.45532 278.19453 403.01953 291.94141 403.01953 L 291.94141 412.93164 C 287.74856 414.86159 280.88088 416 274.39648 416 C 252.23637 416 234.67781 407.22664 223.19531 393.45508 C 210.61105 378.95271 188.44983 347.61039 165.15039 305.98633 C 152.89914 305.98633 144.88164 305.98606 135.71289 305.21875 L 135.71289 369.00391 C 135.71289 392.7001 141.08505 397.67521 151.39062 399.17188 L 171.26367 401.88086 L 171.26367 412.93164 C 161.71108 412.56105 139.54998 411.80469 122.36328 411.80469 C 104.39603 411.80469 86.441431 412.56105 76.134766 412.93164 L 76.134766 401.88086 L 90.636719 399.17188 C 100.61111 397.27953 106.28906 392.7001 106.28906 369.00391 L 106.28906 218.50586 C 106.28906 194.79824 100.61076 190.24462 90.636719 188.32617 L 76.134766 185.66602 L 76.134766 174.58008 C 85.661226 174.95066 100.95604 174.94922 116.26367 174.94922 C 133.04039 174.94922 151.00846 173.8125 173.52734 173.8125 z M 166.66016 190.99805 C 156.34026 190.99805 144.52429 190.9983 135.71289 191.76562 L 135.71289 287.61133 C 144.52429 288.44166 150.22826 288.78711 163.2207 288.78711 C 197.2364 288.78711 217.84961 268.54435 217.84961 238.36523 C 217.84961 207.82875 198.76959 190.99805 166.66016 190.99805 z"/></svg>

<svg xmlns="http://www.w3.org/2000/svg" width="100%" height="100%" viewBox="-75.52 -43.52 599.04 599.04"><path d="M48 32C21.5 32 0 53.5 0 80v352c0 26.5 21.5 48 48 48h352c26.5 0 48-21.5 48-48V80c0-26.5-21.5-48-48-48H48zm277.201 64c5.627 0 10.731.651 15.258 1.98 4.476 1.318 8.49 3.135 12.031 5.461 3.491 2.302 6.511 5.013 9.004 8.082a44.056 44.056 0 016.227 9.899c.626 1.125.449 2.02-.55 2.646l-13.9 5.715c-1.177.628-2.006.308-2.66-.933-3.119-5.78-5.78-9.577-10.152-12.338-4.425-2.75-8.518-4.055-15.258-4.055-7.327 0-10.601 1.457-15.191 4.744-4.553 3.223-7.89 7.276-9.86 13.451-.395 1.114-.754 2.496-1.175 4.12-.346 1.65-.627 3.67-.805 6.035-.18 2.366-.347 5.295-.5 8.748-.102 3.453-.152 7.646-.152 12.506 0 4.884.05 9.078.152 12.53.153 3.44.32 6.37.5 8.735.178 2.391.46 4.4.805 6.063.421 1.598.78 2.977 1.175 4.103 1.97 6.15 4.783 9.514 8.926 12.213 4.092 2.737 8.798 4.707 16.125 4.707 6.51 0 12.469-1.855 16.356-4.682 3.85-2.825 7.046-6.559 8.478-11.662.627-2.148 1.433-4.822 1.983-8.095.498-3.274.5-6.738.5-11.52 0-.755-.424-1.14-1.127-1.14h-22.264c-1.253 0-1.867-.613-1.867-1.866v-12.761c0-1.267.614-1.881 1.867-1.881h40.857c1.28 0 1.881.614 1.881 1.88v10.907c0 5.78 0 11.14-.601 16.101-.576 4.962-1.355 9.257-2.34 12.389-3.12 9.81-8.07 16.793-15.653 21.996-7.609 5.243-17.417 8.068-28.07 8.068-10.946 0-20.165-2.516-27.683-7.517-7.532-5.064-12.918-12.496-16.204-22.432a42.571 42.571 0 01-1.482-5.83c-.384-2.007-.73-4.348-1.037-7.047-.32-2.723-.524-5.919-.65-9.691-.129-3.746-.18-8.325-.18-13.568 0-5.27.052-9.782.18-13.541.127-3.773.33-7.01.65-9.708.306-2.685.653-5.037 1.037-7.044.37-2.02.857-3.94 1.484-5.819 3.286-9.936 8.67-17.404 16.202-22.418C305.036 98.518 314.255 96 325.2 96zm-151.674 77.813c43.569 0 76.803 19.858 76.803 62.646 0 29.028-22.916 58.083-53.861 65.32 18.733 33.249 41.252 62.662 58.08 80.973 9.898 10.703 23.646 20.268 37.392 20.268v9.912c-4.192 1.93-11.06 3.068-17.545 3.068-22.16 0-39.718-8.773-51.2-22.545-12.585-14.502-34.746-45.845-58.046-87.469-12.25 0-20.268 0-29.437-.767v63.785c0 23.696 5.372 28.671 15.678 30.168l19.873 2.709v11.05c-9.553-.37-31.714-1.126-48.9-1.126-17.968 0-35.923.756-46.23 1.127V401.88l14.503-2.71c9.974-1.891 15.652-6.47 15.652-30.167V218.506c0-23.708-5.678-28.261-15.652-30.18l-14.502-2.66V174.58c9.526.37 24.821.37 40.129.37 16.776 0 34.744-1.137 57.263-1.137zm-6.867 17.185c-10.32 0-22.136 0-30.947.768v95.845c8.811.83 14.515 1.176 27.508 1.176 34.015 0 54.629-20.243 54.629-50.422 0-30.536-19.08-47.367-51.19-47.367z"/></svg>
